src/topics/icons/picasa.svg

<svg height="257" preserveAspectRatio="xMidYMid" viewBox="0 0 256 257" width="256" xmlns="http://www.w3.org/2000/svg"><path d="m127.961388.23167421c-70.6696142 0-127.961388 57.29177379-127.961388 127.96138779s57.2917738 127.961387 127.961388 127.961387c70.669613 0 127.961387-57.291773 127.961387-127.961387s-57.291774-127.96138779-127.961387-127.96138779zm.695022 78.15143289 23.707994 17.3755656 23.707994 17.4527903-9.189743 28.032579-9.266969 27.87813-29.422624-.077225-29.4226246-.154449-9.0352941-28.032579-8.8808447-28.03258 23.8624434-17.2983405z" fill="#e9eaeb"/><path d="m113.752036 177.925792c-6.378558 0-9.7268 4.419728-7.33635 11.352036l16.448869 47.802112c1.682931.077126 3.394846.154449 5.096833.154449 42.309839 0 78.985573-24.09474 97.071493-59.308597z" fill="#0dab62"/><path d="m170.57698 157.576637c-2.0444 6.042055 1.069017 10.63023 8.401777 10.58777l50.552342-.260001c.612456-1.569427 1.234388-3.166246 1.779893-4.778444 13.56077-40.077775 2.492133-82.5413025-25.067272-110.9595259z" fill="#ffd34e"/><path d="m76.2299851 129.781428c-1.9461054-6.074429-7.1766517-7.914562-13.0490998-3.523035l-40.5043356 30.249065c.4400157 1.62622.8886862 3.280102 1.4079642 4.900936 12.9087788 40.292504 47.0444895 67.868207 86.0973841 74.348003z" fill="#448afd"/><path d="m109.522387 79.7680419c5.105126-3.8240923 5.135185-9.3688036-.934108-13.4839974l-41.8234518-28.39729c-1.3931837.9472275-2.8096855 1.9116743-4.1718829 2.932054-33.8629899 25.3657335-48.7713255 66.6380925-42.1349975 105.6646885z" fill="#9b479f"/><path d="m168.738665 96.2116495c5.162104 3.7468207 10.467992 2.1367652 12.605524-4.8776576l14.767475-48.3479954c-1.316676-1.0509879-2.656692-2.119158-4.034092-3.1189205-34.240944-24.8531748-78.075726-26.897187-113.3974153-9.0227825z" fill="#e04a3f"/></svg>

<?xml version="1.0" encoding="UTF-8" standalone="no"?>
<svg width="256px" height="257px" viewBox="0 0 256 257" version="1.1" xmlns="http://www.w3.org/2000/svg" xmlns:xlink="http://www.w3.org/1999/xlink" preserveAspectRatio="xMidYMid">
	<g>
		<path d="M127.961388,0.231674208 C57.2917738,0.231674208 0,57.523448 0,128.193062 C0,198.862676 57.2917738,256.154449 127.961388,256.154449 C198.631001,256.154449 255.922775,198.862676 255.922775,128.193062 C255.922775,57.523448 198.631001,0.231674208 127.961388,0.231674208 L127.961388,0.231674208 Z M128.65641,78.3831071 L152.364404,95.7586727 L176.072398,113.211463 L166.882655,141.244042 L157.615686,169.122172 L128.193062,169.044947 L98.7704374,168.890498 L89.7351433,140.857919 L80.8542986,112.825339 L104.716742,95.5269985 L128.65641,78.3831071 L128.65641,78.3831071 Z" fill="#E9EAEB"></path>
		<path d="M113.752036,177.925792 C107.373478,177.925792 104.025236,182.34552 106.415686,189.277828 L122.864555,237.07994 C124.547486,237.157066 126.259401,237.234389 127.961388,237.234389 C170.271227,237.234389 206.946961,213.139649 225.032881,177.925792 L113.752036,177.925792 L113.752036,177.925792 Z" fill="#0DAB62"></path>
		<path d="M170.57698,157.576637 C168.53258,163.618692 171.645997,168.206867 178.978757,168.164407 L229.531099,167.904406 C230.143555,166.334979 230.765487,164.73816 231.310992,163.125962 C244.871762,123.048187 233.803125,80.5846595 206.24372,52.1664361 L170.57698,157.576637 L170.57698,157.576637 Z" fill="#FFD34E"></path>
		<path d="M76.2299851,129.781428 C74.2838797,123.706999 69.0533334,121.866866 63.1808853,126.258393 L22.6765497,156.507458 C23.1165654,158.133678 23.5652359,159.78756 24.0845139,161.408394 C36.9932927,201.700898 71.1290034,229.276601 110.181898,235.756397 L76.2299851,129.781428 L76.2299851,129.781428 Z" fill="#448AFD"></path>
		<path d="M109.522387,79.7680419 C114.627513,75.9439496 114.657572,70.3992383 108.588279,66.2840445 L66.7648272,37.8867545 C65.3716435,38.833982 63.9551417,39.7984288 62.5929443,40.8188085 C28.7299544,66.184542 13.8216188,107.456901 20.4579468,146.483497 L109.522387,79.7680419 L109.522387,79.7680419 Z" fill="#9B479F"></path>
		<path d="M168.738665,96.2116495 C173.900769,99.9584702 179.206657,98.3484147 181.344189,91.3339919 L196.111664,42.9859965 C194.794988,41.9350086 193.454972,40.8668385 192.077572,39.867076 C157.836628,15.0139012 114.001846,12.969889 78.6801567,30.8442935 L168.738665,96.2116495 L168.738665,96.2116495 Z" fill="#E04A3F"></path>
	</g>
</svg>
